src/assets/duotone/SendSqaure2.svg

<svg width="24" height="24" viewBox="0 0 24 24"  xmlns="http://www.w3.org/2000/svg">
<path opacity="0.4" d="M16.1898 2H7.81978C4.17978 2 2.00977 4.17 2.00977 7.81V16.18C2.00977 19.82 4.17978 21.99 7.81978 21.99H16.1898C19.8298 21.99 21.9998 19.82 21.9998 16.18V7.81C21.9998 4.17 19.8298 2 16.1898 2Z" />
<path d="M9.17009 14.0899C9.36009 14.0899 9.55009 14.0199 9.70009 13.8699L14.0801 9.48992V11.9199C14.0801 12.3299 14.4201 12.6699 14.8301 12.6699C15.2401 12.6699 15.5801 12.3299 15.5801 11.9199V7.67992C15.5801 7.57992 15.5601 7.48992 15.5201 7.38992C15.4401 7.20992 15.3001 7.05993 15.1101 6.97993C15.0201 6.93993 14.9201 6.91992 14.8201 6.91992H10.5801C10.1701 6.91992 9.83009 7.25992 9.83009 7.66992C9.83009 8.07992 10.1701 8.41992 10.5801 8.41992H13.0101L8.6301 12.7999C8.3401 13.0899 8.3401 13.5699 8.6301 13.8599C8.7901 14.0199 8.98009 14.0899 9.17009 14.0899Z" />
<path d="M18.7102 16.28C18.5802 15.89 18.1602 15.68 17.7602 15.81C14.0402 17.05 9.95018 17.05 6.23018 15.81C5.84018 15.68 5.41018 15.89 5.28018 16.28C5.15018 16.67 5.36018 17.1 5.75018 17.23C7.76018 17.9 9.87019 18.24 11.9902 18.24C14.1102 18.24 16.2202 17.9 18.2302 17.23C18.6302 17.09 18.8402 16.67 18.7102 16.28Z" />
</svg>

<?xml version="1.0" encoding="UTF-8"?>
<svg width="24" height="24" viewBox="0 0 24 24" xmlns="http://www.w3.org/2000/svg">
 <path d="m16.19 2h-8.37c-3.64 0-5.81 2.17-5.81 5.81v8.37c0 3.64 2.17 5.81 5.81 5.81h8.37c3.64 0 5.81-2.17 5.81-5.81v-8.37c0-3.64-2.17-5.81-5.81-5.81z" opacity=".4"/>
 <path d="m9.1701 14.09c0.19 0 0.38-0.07 0.53-0.22l4.38-4.38v2.43c0 0.41 0.34 0.75 0.75 0.75s0.75-0.34 0.75-0.75v-4.24c0-0.1-0.02-0.19-0.06-0.29-0.08-0.18-0.22-0.32999-0.41-0.40999-0.09-0.04-0.19-0.06001-0.29-0.06001h-4.24c-0.41 0-0.75001 0.34-0.75001 0.75s0.34001 0.75 0.75001 0.75h2.43l-4.38 4.38c-0.29 0.29-0.29 0.77 0 1.06 0.16 0.16 0.34999 0.23 0.53999 0.23z"/>
 <path d="m18.71 16.28c-0.13-0.39-0.55-0.6-0.95-0.47-3.72 1.24-7.81 1.24-11.53 0-0.39-0.13-0.82 0.08-0.95 0.47s0.08 0.82 0.47 0.95c2.01 0.67 4.12 1.01 6.24 1.01 2.12 0 4.23-0.34 6.24-1.01 0.4-0.14 0.61-0.56 0.48-0.95z"/>
</svg>
